X:21
%%score 1 2
%%staffscale 1.0
T: Hanskin or Half Hannikin
M: 6/8
L: 1/8
K: G
V:1 clef-treble
V:2 clef-bass octave=-1
V:1
B>cd d2c & G3 F3|B>cB A2G & G3 F2G|B>cd d>cB & =F3 E3|[^FA]>G[CF] [B,G]3:||
V:2
G3 D3| G,2B, D2G|G3 C3|D3 G,3:||
V:1
[DGB]3 [EGc]3|[DGB]3 [CFA]2[B,G]|B>AB c2B & G3 E3|[FA]>G[CF] [B,G]3|
V:2
G3 C3|G,2B, D2G|E3 A,3|D3 G,3|
V:1
[DGB]>AB [EGc]>dc|[DGB]>AB [CFA]2[B,G]|B>cd d>cB & [E^G]3 [EA]x2|[FA]>G[CF] [B,G]3||
V:2
G3 C3|G,2B, D2G|E3 A,3|D3 G,3|| 

